app/dist/common/images/freightos-limited.svg

<svg height="18" viewBox="0 0 18 18" width="18" xmlns="http://www.w3.org/2000/svg" xmlns:xlink="http://www.w3.org/1999/xlink"><linearGradient id="a" gradientUnits="userSpaceOnUse" x1="-19.82" x2="274.42" y1="216.92" y2="48.81"><stop offset=".22" stop-color="#0154c0"/><stop offset=".55" stop-color="#0553a6"/></linearGradient><linearGradient id="b"><stop offset="0" stop-color="#255aff"/><stop offset="1" stop-color="#008a00"/></linearGradient><linearGradient id="c" x1="-204.41" x2="732.82" xlink:href="#b" y1="454.2" y2="-461.72"/><linearGradient id="d" gradientUnits="userSpaceOnUse" x1="-3.85" x2="264.98" y1="131.86" y2="58.18"><stop offset="0" stop-color="#1a5d6d"/><stop offset="1" stop-color="#145e20"/></linearGradient><linearGradient id="e" x1="-28.15" x2="675.82" xlink:href="#b" y1="585.7" y2="-69.05"/><linearGradient id="f" gradientUnits="userSpaceOnUse" x1="6.11" x2="255.62" y1="79.5" y2="79.5"><stop offset="0" stop-color="#3a8c9c"/><stop offset=".32" stop-color="#409694"/></linearGradient><linearGradient id="g" gradientUnits="userSpaceOnUse" x1="-308" x2="270.12" y1="252.39" y2="-385.7"><stop offset=".3" stop-color="#2e7dc4"/><stop offset=".63" stop-color="#379f8b"/></linearGradient><linearGradient id="h" gradientUnits="userSpaceOnUse" x1="53.06" x2="211.63" y1="233.75" y2="140.5"><stop offset=".37" stop-color="#38ac5e"/><stop offset=".53" stop-color="#38af56"/></linearGradient><path d="m0 0h18v18h-18z" fill="#f0f3fa"/><path d="m3 9.5h2.5v2.5h-2.5z" fill="url(#a)"/><path d="m3 6h2.5v2.5h-2.5z" fill="url(#c)"/><path d="m9 7h2.5v2h-2.5z" fill="url(#d)"/><path d="m6 8h2.5v4h-2.5z" fill="url(#e)"/><path d="m6 6h2.5v1.5h-2.5z" fill="url(#f)"/><path d="m9 9.5h6v2.5h-6z" fill="url(#g)"/><path d="m13 6h2v3h-2z" fill="url(#h)"/><path d="m12 6h.5v3h-.5z" fill="#187c2d"/></svg>

<!-- by TradingView --><svg width="18" height="18" viewBox="0 0 18 18" xmlns="http://www.w3.org/2000/svg"><path fill="#F0F3FA" d="M0 0h18v18H0z"/><path d="M3 9.5h2.5V12H3V9.5Z" fill="url(#anttwgtw0)"/><path d="M3 6h2.5v2.5H3V6Z" fill="url(#bnttwgtw0)"/><path d="M9 7h2.5v2H9V7Z" fill="url(#cnttwgtw0)"/><path d="M6 8h2.5v4H6V8Z" fill="url(#dnttwgtw0)"/><path d="M6 6h2.5v1.5H6V6Z" fill="url(#enttwgtw0)"/><path d="M9 9.5h6V12H9V9.5Z" fill="url(#fnttwgtw0)"/><path d="M13 6h2v3h-2V6Z" fill="url(#gnttwgtw0)"/><path d="M12 6h.5v3H12V6Z" fill="#187C2D"/><defs><linearGradient id="anttwgtw0" x1="-19.82" y1="216.92" x2="274.42" y2="48.81" gradientUnits="userSpaceOnUse"><stop offset=".22" stop-color="#0154C0"/><stop offset=".55" stop-color="#0553A6"/></linearGradient><linearGradient id="bnttwgtw0" x1="-204.41" y1="454.2" x2="732.82" y2="-461.72"><stop stop-color="#255AFF"/><stop offset="1" stop-color="#008A00"/></linearGradient><linearGradient id="cnttwgtw0" x1="-3.85" y1="131.86" x2="264.98" y2="58.18" gradientUnits="userSpaceOnUse"><stop stop-color="#1A5D6D"/><stop offset="1" stop-color="#145E20"/></linearGradient><linearGradient id="dnttwgtw0" x1="-28.15" y1="585.7" x2="675.82" y2="-69.05"><stop stop-color="#255AFF"/><stop offset="1" stop-color="#008A00"/></linearGradient><linearGradient id="enttwgtw0" x1="6.11" y1="79.5" x2="255.62" y2="79.5" gradientUnits="userSpaceOnUse"><stop stop-color="#3A8C9C"/><stop offset=".32" stop-color="#409694"/></linearGradient><linearGradient id="fnttwgtw0" x1="-308" y1="252.39" x2="270.12" y2="-385.7" gradientUnits="userSpaceOnUse"><stop offset=".3" stop-color="#2E7DC4"/><stop offset=".63" stop-color="#379F8B"/></linearGradient><linearGradient id="gnttwgtw0" x1="53.06" y1="233.75" x2="211.63" y2="140.5" gradientUnits="userSpaceOnUse"><stop offset=".37" stop-color="#38AC5E"/><stop offset=".53" stop-color="#38AF56"/></linearGradient></defs></svg>
